X: 19
T: Master Crowley's
Z: ceili
S: https://thesession.org/tunes/281#setting48448
R: reel
M: 4/4
L: 1/8
K: Ddor
|:"Dm"A,D D/D/D A,DFD|"C"DCB,C G,CEC|"Dm"A,D D/D/D A,DFD|"C"EGcE "Dm"EDD2|
"Dm"A,D D/D/D A,DFD|"C"DCB,C G,CEC|"Dm"A,D D/D/D "B"_B,3D|"C"EGcE "Dm"EDD2:|
|:"Dm"Aa^ga efdf|"C"ec c/c/c Gcec|"Dm"Aa^ga efdB|"C"cAGE "Dm"EDD2|
"Dm"Aa^ga efdf|"C"ec c/c/c Gcec|"B"DEFG A3c|"B7"GEcE "Dm"EDD2:|

